material/.icons/material/download-outline.svg

<svg xmlns="http://www.w3.org/2000/svg" viewBox="0 0 24 24"><path d="M13 5v6h1.17L12 13.17 9.83 11H11V5h2m2-2H9v6H5l7 7 7-7h-4V3m4 15H5v2h14v-2z"/></svg>

<?xml version="1.0" encoding="UTF-8"?><!DOCTYPE svg PUBLIC "-//W3C//DTD SVG 1.1//EN" "http://www.w3.org/Graphics/SVG/1.1/DTD/svg11.dtd"><svg xmlns="http://www.w3.org/2000/svg" xmlns:xlink="http://www.w3.org/1999/xlink" version="1.1" id="mdi-download-outline" width="24" height="24" viewBox="0 0 24 24"><path d="M13,5V11H14.17L12,13.17L9.83,11H11V5H13M15,3H9V9H5L12,16L19,9H15V3M19,18H5V20H19V18Z" /></svg>
